<?xml version="1.0" encoding="UTF-8"?>
<map version="1.10" tiledversion="1.11.0" orientation="orthogonal" renderorder="right-down" width="20" height="32" tilewidth="16" tileheight="16" infinite="0" nextlayerid="2" nextobjectid="1">
  <tileset firstgid="1" name="spritefusion" tilewidth="16" tileheight="16" tilecount="88" columns="8">
    <image source="spritesheet.png" width="128" height="176"/>
  </tileset>
  <layer id="1" name="Layer_0" width="20" height="32">
    <properties>
      <property name="collider" type="bool" value="false"/>
    </properties>
    <data encoding="csv">
35,36,37,38,39,40,41,42,43,35,36,37,38,39,40,41,42,43,35,36,
44,45,46,47,48,49,50,51,52,44,45,46,47,48,49,50,51,52,44,45,
53,54,55,56,57,58,59,60,61,53,54,55,56,57,58,59,60,61,53,54,
62,63,64,65,66,67,68,69,70,62,63,64,65,66,67,68,69,70,62,63,
71,72,73,74,75,76,77,78,79,71,72,73,74,75,76,77,78,79,71,72,
80,81,82,83,84,85,86,87,88,80,81,82,83,84,85,86,87,88,80,81,
1,2,3,4,1,2,3,4,1,2,3,4,1,2,3,4,1,2,3,4,
5,6,7,8,5,6,7,8,5,6,7,8,5,6,7,8,5,6,7,8,
9,10,11,12,9,10,11,12,9,10,11,12,9,10,11,12,9,10,11,12,
13,14,15,16,13,14,15,16,13,14,15,16,13,14,15,16,13,14,15,16,
1,2,3,4,1,2,3,4,1,2,3,4,1,2,3,4,1,2,3,4,
5,6,7,8,5,6,7,8,5,6,7,8,5,6,7,8,5,6,7,8,
9,10,11,12,9,10,11,12,9,10,11,12,9,10,11,12,9,10,11,12,
13,14,15,16,13,14,15,16,13,14,15,16,13,14,15,16,13,14,15,16,
1,2,3,4,1,2,3,4,1,2,3,4,1,2,3,4,1,2,3,4,
5,6,7,8,5,6,7,8,5,6,7,8,5,6,7,8,5,6,7,8,
9,10,11,12,9,10,11,12,9,10,11,12,9,10,11,12,9,10,11,12,
13,14,15,16,13,14,15,16,13,14,15,16,13,14,15,16,13,14,15,16,
1,2,3,4,1,2,3,4,1,2,3,4,1,2,3,4,1,2,3,4,
5,6,7,8,5,6,7,8,5,6,7,8,5,6,7,8,5,6,7,8,
9,10,11,12,9,10,11,12,9,10,11,12,9,10,11,12,9,10,11,12,
13,14,15,16,13,14,15,16,13,14,15,16,13,14,15,16,13,14,15,16,
1,2,3,4,1,2,3,4,1,2,3,4,1,2,3,4,1,2,3,4,
5,6,7,8,5,6,7,8,5,6,7,8,5,6,7,8,5,6,7,8,
9,10,11,12,9,10,11,12,9,10,11,12,9,10,11,12,9,10,11,12,
13,14,15,16,13,14,15,16,13,14,15,16,13,14,15,16,13,14,15,16,
1,2,3,4,1,2,3,4,1,2,3,4,1,2,3,4,1,2,3,4,
5,6,7,8,5,6,7,8,5,6,7,8,5,6,7,8,5,6,7,8,
9,10,11,12,9,10,11,12,9,10,11,12,9,10,11,12,9,10,11,12,
13,14,15,16,13,14,15,16,13,14,15,16,13,14,15,16,13,14,15,16,
17,18,19,20,21,22,23,24,25,17,18,19,20,21,22,23,24,25,17,18,
26,27,28,29,30,31,32,33,34,26,27,28,29,30,31,32,33,34,26,27
    </data>
  </layer>
</map>
